X:368
T:Valiant, the
S:Trad? via Simon Ritchie
M:6/8
L:1/8
Z:John Adams.
K:G
G2A|: B2B BAG|B2A ABA| G2G GAG| G2F F2D|
E2E EFG|1E2D D2D| G2G GAB|B2A A3:|2 BAG FED|
EFG AGF|F2G G3:||d3e3|dcB AGF| G2G GAB|B2A A3|
dBd ece|dcB AGF| G2G GAB|A2G G3:|
|:E2E EFG|E2D D2D|G2G GAB| B2A A2D|
E2E EFG|BAG FED| EFG AGF| F2G G3:||

